X:1
T:Glorious Ale
M:3/4
L:1/4
K:C
 G| c G c|A/2-G/2 F A| G E D| C3| D E F| A d c|B/2-A/2 G ^F| G2 G/2G/2|\
 G c A| F B G| E A F| D2- D/2C/2| D E F| A d c|B/2-A/2 G A| G- F- D|\
 C3| D3| E3/2 F/2 G|A/2-B/2 c2| c c d| B B c| d B A| G3| c c A| F/2G/2 A2|\
 B B G| E2 E| F D G| E C D/2E/2| F D G| E C D/2E/2| F D A/2F/2|E/2-G/2 c G/2G/2|\
A/2-B/2 c B| c2||
